X: 1
T: Braigh Loch Iall
M: 3/4
L: 1/8
R: waltz
K: Edor
E3D F2|E4E2|e3d B2|AB3 d2|
[1F4 E2|D4 F2|A3B d2|BA3 F2:|
[2FD3 F2|A3B d2|F3E E2|E6||
